X:1
T:Partition sans titre
C:Compositeur / Arrangeur
L:1/8
M:4/4
I:linebreak $
K:C
V:1 treble nm="Violon" snm="Vln."
V:1
"Dm" D Pd3 dcAG | F3 E"C" EDCE |"Dm" Ddd^c df"C"eg |"Dm" fage f3 g |"Dm" gffe fdcA | dfed"C" cAGE | %6
"Dm" DddB"C" cAGE | CDEC EDCE ::"C" G,A,DE"Dm" FEDC |"Gm" _B,3 B, B,A,G,B, |"Dm" PA,2 D^C DEFE | %11
 Ddd^c defg |"C" gffe fdcA |"Dm" dfed"C" cAGE |"Dm" DddB"C" cAGE | CDEC EDCE :| %16
